projects/vfh1/img/icons/user-lk.svg

<svg viewBox="0 0 18 21" fill="none" xmlns="http://www.w3.org/2000/svg">
<path fill="currentColor" d="M9 21C8.86667 21 8.74167 20.9786 8.625 20.9357C8.50833 20.8935 8.4 20.8214 8.3 20.7193L6 18.3718H2C1.45 18.3718 0.979 18.1721 0.587 17.7727C0.195667 17.3726 0 16.8919 0 16.3305V2.04131C0 1.47995 0.195667 0.999222 0.587 0.599125C0.979 0.199708 1.45 0 2 0H16C16.55 0 17.021 0.199708 17.413 0.599125C17.8043 0.999222 18 1.47995 18 2.04131V16.3305C18 16.8919 17.8043 17.3726 17.413 17.7727C17.021 18.1721 16.55 18.3718 16 18.3718H12L9.7 20.7193C9.6 20.8214 9.49167 20.8935 9.375 20.9357C9.25833 20.9786 9.13333 21 9 21ZM9 10.2066C9.96667 10.2066 10.7917 9.85784 11.475 9.16039C12.1583 8.46294 12.5 7.6209 12.5 6.63426C12.5 5.64763 12.1583 4.80559 11.475 4.10814C10.7917 3.41069 9.96667 3.06197 9 3.06197C8.03333 3.06197 7.20833 3.41069 6.525 4.10814C5.84167 4.80559 5.5 5.64763 5.5 6.63426C5.5 7.6209 5.84167 8.46294 6.525 9.16039C7.20833 9.85784 8.03333 10.2066 9 10.2066ZM9 18.5759L11.2 16.3305H16V15.1567C15.1 14.2552 14.0543 13.5448 12.863 13.0256C11.671 12.5071 10.3833 12.2479 9 12.2479C7.61667 12.2479 6.32933 12.5071 5.138 13.0256C3.946 13.5448 2.9 14.2552 2 15.1567V16.3305H6.8L9 18.5759Z" />
</svg>

<svg viewBox="0 0 18 21" fill="none" xmlns="http://www.w3.org/2000/svg"><path fill="currentColor" d="M9 21c-.133 0-.258-.021-.375-.064a.87.87 0 01-.325-.217L6 18.372H2c-.55 0-1.021-.2-1.413-.6-.391-.4-.587-.88-.587-1.441V2.04C0 1.48.196 1 .587.6.979.2 1.45 0 2 0h14c.55 0 1.021.2 1.413.6.391.4.587.88.587 1.441v14.29c0 .56-.196 1.042-.587 1.442-.392.4-.863.599-1.413.599h-4l-2.3 2.347a.87.87 0 01-.325.217A1.078 1.078 0 019 21zm0-10.793c.967 0 1.792-.35 2.475-1.047S12.5 7.62 12.5 6.634c0-.986-.342-1.828-1.025-2.526C10.792 3.411 9.967 3.062 9 3.062c-.967 0-1.792.349-2.475 1.046-.683.698-1.025 1.54-1.025 2.526 0 .987.342 1.829 1.025 2.526.683.698 1.508 1.047 2.475 1.047zm0 8.369l2.2-2.245H16v-1.174a10.08 10.08 0 00-3.137-2.131c-1.192-.519-2.48-.778-3.863-.778s-2.67.26-3.862.778A10.075 10.075 0 002 15.156v1.175h4.8L9 18.576z"/></svg>
